X:1
T:Title
%%score [ 1 2 3 4 ]
L:1/8
Q:1/4=352
M:3/2
K:C
V:1 treble nm="MusicXML Part"
V:2 treble nm="MusicXML Part"
V:3 treble-8 nm="MusicXML Part"
V:4 treble-8 nm="MusicXML Part"
V:1
 c12 | c2 d4 c4 B2 | A2 _B2 G2 F4 E2 | F12 | c4 c4 B4 | A4 A2 G4 F2 | E12 | z12 | c4 G4 A4 | %9
w: Pe-|||trum|Mar- cel- lo|Ve- * ne- *|tum,||Ro- ma- no|
 B8 c4 | e2 d4 c4 B2 | A2 B2 c2 B4 A2 | c12- | c12 | z12 | F4 G4 A4 | F4 G2 A4 B2 | c4 z4 d4 | %18
w: cre- tum|san- * * *|gui- * * * *|ne,|||pa- sto- rem|no- strum cu- ri-|e lau-|
 c6 A4 _B2- | B2 G4 A4 G2 | F4 z2 A2 F2 G2 | A4 z2 c2 A2 B2 | c2 c2 z2 A2 B2 B2 | %23
w: de- mus be-|* ne me- ri-|tum. * * *|||
 z2 G2 A2 A2 z2 F2 | G12 | z12 | c6 B4 A2- | A2 G4 F2 E2 F2 | G4 z2 A2 B2 c2 | d8 B4 | G8 D4 | %31
w: |||Ex- ul- tet|* urbs Eu- ga- ne-|e ad- ven- tu|tan- ti|pre- su-|
 G8 B4 | z2 A2 z2 _B2 A4 | d4 z2 A2 z2 _B2 | A4 d4 z2 B2 | c6 B2 c2 A2 | G6 F2 G2 E2 | %37
w: lis, *||||||
 D6 E2 F2 G2 | A4 _B2 A2 G2 F2 | E12 | z12 || D4 E4 D4 | F4 G2 A4 F2 | E12 | D4 E2 F2 G2 ^F2 | %45
w: ||||ex- ul- tet|plau- * su,- ju-|bi-|lis, vo- * * *|
 G4 A4 G4 | F12 | c2 _B4 A4 G2 | F4 z2 G2 A2 B2 | c2 d4 c4 B2 | c12 | A4 B4 c4 | z2 d2 d2 B2 B4 | %53
w: ves so- nent|e-|the- * * *|re- * * *|||||
 z2 d2 d2 A2 A2 B2 | d2 c2 _B2 A4 G2 | A4 E4 z4 || D12 | E2 G4 B4 A2 | c2 d2 e2 d4 ^c2 | d12 | %60
w: ||e. *|Stirps|* * * le-|tre- * * * *|ris|
 e4 d4 B4 | d4 c2 B4 A2 | G12 | z12 | d4 A4 B4 | c8 A4 | G2 A4 G4 F2 | E2 F2 G2 F4 E2 | F12- | %69
w: Mar- * cel-|li- * * *|na,||ta- li a-|lum- no|de- co- * *|ra- * * * *|ta;|
 F12 | z12 | c4 B4 A4 | G4 F2 E4 F2 | G4 z4 E4 | F6 A4 G2- | G2 B4 A4 B2 | c4 z2 B2 c2 A2 | %77
w: ||cu- jus gra-|du sub- li- ma-|ta, il-|li to- ta|* te de- cli-|na. * * *|
 G4 z2 c2 G2 A2 | B2 B2 z2 d2 c2 c2 | z2 d2 B2 B2 z2 A2 | c12 | z12 | F6 G4 A2- | A2 G4 F2 E2 F2 | %84
w: |||||Plau- dat Pa-|* ta- vi- nus cho-|
 G4 z2 B2 A2 B2 | c8 A4 | F8 C4 | F8 A4 | z2 G2 z2 F2 G4 | D4 z2 G2 z2 A2 | _B4 d4 z2 B2 | %91
w: rus,, lau- des Jo-|vi sum-|mo pan-|gant, *||||
 c6 d2 B2 c2 | d6 c2 B2 A2 | G6 E2 D2 E2 | F4 G2 F2 E2 D2 | C12 | z12 || d4 B4 A4 | G4 A2 B4 c2 | %99
w: ||||||vo- ce le-|ta ce- lum tan-|
 B12 | c4 _B2 A2 B2 G2 | A4 c4 _B4 | A12 | F2 G4 A4 B2 | c4 z2 d2 B2 c2 | e2 d4 c4 B2 | c12 | %107
w: gant,|ve- nit * * e-|nim pa- stor|ve-|||||
 A4 F4 G4 | z2 A2 A2 F2 F4 | z2 _B2 B2 G2 G2 F2 | A2 B2 c2 B4 A2 | c12 |] %112
w: ||||rus.|
V:2
 F8 F2 G2 | A4 F4 G4 | A4 B8 | c4 d2 c4 B2 | A8 G4 | F6 G2 A2 _B2 | A12 | G4 G4 A4 | E8 G4 | %9
w: O * *|||Pe- tre, * *|an- ti-|stes in- * cli-|te,|ve- re vir-|tu- *|
 F2 D4 E2 F2 G2 | A4 B4 A4 | z2 G4 ^F4 E2 | G12 | z12 | G4 G2 A4 B2 | c6 B4 A2- | A2 c4 B2 A2 G2 | %17
w: tis spe- * * *||cu- * *|lum,||quo * * *|no- * strum|* in- ter se- cu-|
 F4 D4 z4 | G4 E4 F4 | A4 G4 _B4 | A4 A4 z2 c2 | A2 B2 c2 c2 A4 | z2 c2 A2 A2 z2 B2 | %23
w: lum *|nos mi- na|re- cto li-|mi- te. *|||
 G2 G2 z2 A2 F2 F2 | E12 | G4 F2 E4 D2 | C4 E4 F4 | G4 A4 B2 A2 | G4 E8 | G4 D8 | d4 B8 | G4 D8 | %32
w: ||O * * *|* pa- ter|a- man- tis- si-|me, nos|o- ves|tu- as|di- ri-|
 F4 G4 z2 A2 | z2 B2 A4 d4 | z2 A2 z2 G2 ^F4 | G4 z2 A2 B2 c2 | z2 d4 c2 _B2 A2 | z2 G4 F2 E2 D2 | %38
w: ge * *||||||
 E4 F4 G4 | A4 _B2 A2 G2 F2 | E12 || d4 A2 B2 c2 B2 | c6 d2 B2 c2 | A4 G4 z4 | B6 c2 A2 A2 | c12 | %46
w: |||et a- ber- ran- *|tes cor- * ri-|ge, *|ju- * * *|dex|
 d4 e4 d4 | c4 z4 z4 | c2 _B4 A4 G2 | F4 z2 G2 E2 ^F2 | G12 | A4 G4 E4 | D4 z2 d2 d2 B2 | %53
w: cun- * *|ctis|ju- stis- * si-|me. * * *||||
 B4 z2 d2 d2 A2 | A2 B2 c4 d4 | ^c12 || d8 B2 A2 | G4 D4 G4 | F4 E8 | D4 G2 G4 F2 | G8 E4 | %61
w: |||O * *|||* cle- * *|ri pri-|
 D6 E2 F2 G2 | E12 | F4 G4 A4 | F8 F4 | G2 A4 G2 A2 F2 | E4 F4 G4 | z2 A4 B4 A2 | c12 | z12 | %70
w: mas * Pa- du-|e,|nos tu- os|ri- te|re- * * * *|gu- * *||la,||
 c4 B2 A4 G2 | F6 G4 A2- | A2 d4 c2 B2 A2 | G4 A4 z4 | c4 A4 B4 | G4 A4 ^F4 | G4 G4 z2 B2 | %77
w: pec- * can- *|tes co- *|* ge fe- ru- *|la, *|sor- di- da|cun- cta di-|lu- e. *|
 c2 A2 G2 G2 E4 | z2 F2 A2 A2 z2 B2 | G2 G2 z2 A2 ^F2 F2 | G12 | c4 B2 A4 G2 | F4 E4 D4 | %83
w: |||Sint|lau- * * *|* * des|
 E4 F4 G2 A2 | G4 E8 | F4 C8 | c4 A8 | F4 C8 | D4 F4 z2 G2 | z2 F2 G4 D4 | z2 F2 z2 E2 D4 | %91
w: Re- gi glo- ri-|e, qui|nos te|di- gnos|re- di-|dit; * *|||
 E4 z2 D2 E2 F2 | z2 G4 A2 B2 c2 | z2 d4 B2 A2 B2 | c4 d4 c4 | F4 G2 F2 E2 D2 | C12 || %97
w: ||||||
 D4 E2 F2 G2 F2 | G6 E2 F2 G2 | E4 ^F4 z4 | G6 F2 E2 D2 | C12 | c4 d4 c4 | A4 z4 z4 | c2 B4 A4 G2 | %105
w: qui * me- lon i-|stud e- * di-|dit, *|a- * de- *|sto|tu- * *|o|Ci- * * *|
 F4 z2 G2 A2 ^F2 | G12 | A4 c4 B4 | c4 z2 A2 A2 F2 | F4 z2 G2 G2 D2 | C2 D2 E4 D4 | F12 |] %112
w: co- * * *|||||ni- * * *|e.|
V:3
 f12 | c12 | d12 | c12- | c12- | c12 | z12 | z12 | z12 | G12 | B12- | B12 | c12- | c12- | c12 | %15
 F12- | F12 | f12 | z12 | z12 | F12- | F12 | F8 A4- | A4 B8 | c12- | c12 | c12 | G12 | c12 | d12- | %30
 d12- | d12 | z12 | z12 | z12 | c12 | d12- | d12 | c12- | c12- | c12 || f4 c4 d4 | c12 | z12 | %44
 G4 B8 | c12 | F8 f4 | z12 | F12 | F4 A4 B4 | c12 | c4 G4 c4 | d12 | z12 | c4 d8 | ^c12 || G12 | %57
 G12 | A12 | d12- | d12- | d12 | z12 | z12 | z12 | c12 | A12- | A12 | c12- | c12- | c12 | A12- | %72
 A12 | c12 | z12 | z12 | e12- | e12 | d8 c4- | c4 B8 | c12- | c12 | F12 | A12 | G12 | c12- | c12- | %87
 c12 | z12 | z12 | z12 | c12 | B12- | B12 | c12- | c12- | c12 || G4 G4 A4 | d12 | z12 | c4 A8 | %101
 c12 | A8 c4 | z12 | e12 | d4 c4 B4 | c12 | F4 A4 G4 | c12 | z12 | c4 B8 | c12 |] %112
V:4
 z12 | z12 | z12 | F12- | F12- | F12 | A12 | c12- | c12 | d12- | d12- | d12 | c12- | c12- | c12 | %15
 z12 | z12 | z12 | c8 d4- | d4 e8 | f12- | f12 | f8 e4- | e4 d8 | c12- | c12 | z12 | z12 | z12 | %29
 G12- | G12- | G12 | d12- | d12- | d12 | c12 | _B12- | B12 | A12- | A12- | A12 || z12 | F12 | %43
 A4 c8 | d12 | c12 | z12 | c4 d4 e4 | f12 | f4 e4 d4 | c12 | z12 | G12 | d12 | c4 _B8 | A12 || %56
 z12 | z12 | z12 | G12- | G12- | G12 | g12 | d12- | d12 | c12- | c12- | c12 | F12- | F12- | F12 | %71
 z12 | z12 | z12 | f8 e4- | e4 d8 | c12- | c12 | d8 e4- | e4 d8 | c12- | c12 | z12 | z12 | z12 | %85
 F12- | F12- | F12 | _B12- | B12- | B12 | A12 | G12- | G12 | F12- | F12- | F12 || z12 | G12 | %99
 g4 d8 | c12 | F12 | z12 | f4 e4 d4 | c12 | d4 e4 d4 | c12 | z12 | F12 | _B12 | A4 G8 | F12 |] %112

